turboProfileConv.svg

<?xml version="1.0" encoding="UTF-8" standalone="no"?>
<!-- Created with Inkscape (http://www.inkscape.org/) -->

<svg
   xmlns:dc="http://purl.org/dc/elements/1.1/"
   xmlns:cc="http://creativecommons.org/ns#"
   xmlns:rdf="http://www.w3.org/1999/02/22-rdf-syntax-ns#"
   xmlns:svg="http://www.w3.org/2000/svg"
   xmlns="http://www.w3.org/2000/svg"
   xmlns:sodipodi="http://sodipodi.sourceforge.net/DTD/sodipodi-0.dtd"
   xmlns:inkscape="http://www.inkscape.org/namespaces/inkscape"
   width="744.09448819"
   height="1052.3622047"
   id="svg2"
   version="1.1"
   inkscape:version="0.48.4 r9939"
   sodipodi:docname="turboProfileConv.svg">
  <sodipodi:namedview
     id="base"
     pagecolor="#ffffff"
     bordercolor="#666666"
     borderopacity="1.0"
     inkscape:pageopacity="0.0"
     inkscape:pageshadow="2"
     inkscape:zoom="1.5675302"
     inkscape:cx="17.322696"
     inkscape:cy="838.10284"
     inkscape:document-units="px"
     inkscape:current-layer="layer4"
     showgrid="false"
     showguides="true"
     inkscape:guide-bbox="true"
     inkscape:window-width="1366"
     inkscape:window-height="715"
     inkscape:window-x="-8"
     inkscape:window-y="-8"
     inkscape:window-maximized="1"
     inkscape:snap-global="false">
    <sodipodi:guide
       orientation="1,0"
       position="0,898.01498"
       id="guide3148" />
    <sodipodi:guide
       orientation="1,0"
       position="253.12499,1104.183"
       id="guide3002" />
    <sodipodi:guide
       orientation="1,0"
       position="188.1111,678.22368"
       id="guide3004" />
  </sodipodi:namedview>
  <defs
     id="defs4" />
  <metadata
     id="metadata7">
    <rdf:RDF>
      <cc:Work
         rdf:about="">
        <dc:format>image/svg+xml</dc:format>
        <dc:type
           rdf:resource="http://purl.org/dc/dcmitype/StillImage" />
        <dc:title></dc:title>
      </cc:Work>
    </rdf:RDF>
  </metadata>
  <g
     style="display:inline"
     inkscape:label="base"
     id="layer2"
     inkscape:groupmode="layer">
    <path
       sodipodi:nodetypes="cccccc"
       inkscape:connector-curvature="0"
       id="path3793"
       d="m 0.65640587,306.027 175.92147413,0 72.23908,0 4.66477,0.53544 4.1219,1.56434 3.60491,2.53028 3.11381,3.43325 2.6486,4.27326 2.20928,5.0503 1.79585,5.76439 1.40832,6.4155 1.04667,7.00366 0.71091,7.52884 0.40104,7.99107 0.11706,8.39033 -0.51424,17.72659 -1.33947,18.56807 -1.95757,18.90583 -2.36856,18.73988 -5.14159,34.96708 -4.30006,28.25873 -1.31666,10.35446 -0.48491,7.16624 -4.9741,-4.27672 -4.93942,-3.65327 -4.90496,-3.04765 -4.87068,-2.45985 -4.8366,-1.88988 -4.80272,-1.33774 -4.76903,-0.80342 -4.73553,-0.28693 -4.70223,0.21173 -4.66913,0.69257 -4.63622,1.15558 -4.6035,1.60077 -4.57098,2.02812 -4.53866,2.43766 -4.50653,2.82935 -4.47459,3.20324 -8.85416,7.4568 -8.72875,8.73839 -8.60492,9.87737 -8.48263,10.87373 -8.36191,11.72749 -8.24275,12.43863 -8.12514,13.00716 -8.0091,13.43307 -15.676309,27.57344 -15.23085,27.56574 -14.79787,26.41715 -7.240466,12.42132 -7.1369,11.70634 -7.034894,10.84873 -6.934446,9.84852 -6.83556,8.7057 -6.738232,7.42025 -6.642464,5.99221 -3.285807,2.41602 -3.26245,2.00552 -3.239287,1.57721 -3.2163202,1.13106 -3.1935481,0.66709 -3.17097083,0.18529 0,-455.60533"
       style="color:#000000;fill:#e40000;fill-opacity:1;fill-rule:nonzero;stroke:#5d0000;stroke-width:1.31281173;stroke-linecap:butt;stroke-linejoin:miter;stroke-miterlimit:4;stroke-opacity:1;stroke-dasharray:none;stroke-dashoffset:0;marker:none;visibility:visible;display:inline;overflow:visible;enable-background:accumulate" />
  </g>
  <g
     style="display:inline"
     inkscape:label="shroud"
     id="layer3"
     inkscape:groupmode="layer">
    <path
       sodipodi:nodetypes="ccscccccccccccccccccccccccccccccccccccccccccccccccc"
       inkscape:connector-curvature="0"
       id="path3775"
       d="M285.39497 94.642738L103.74012 94.642738L100.275054326 97.9825240312L97.2868428594 101.52694025L94.7731115566 105.275914844L92.731486375 109.229376L91.1595932715 113.387251906L90.0550582031 117.74947075L89.415507127 122.315960719L89.238566 127.08665L89.8763705408 138.031549377L91.5255598887 149.554356113L94.1393514446 161.481308113L97.6709626094 173.638643281L102.073610784 185.852599524L107.300513369 197.949414746L113.304887766 209.755326853L120.039951375 221.09657375L127.458921597 231.799393342L135.515015834 241.690023535L144.161451486 250.594702234L148.69142778 254.623009118L153.351445953 258.339667344L158.135658181 261.722956648L163.038216637 264.75115677L168.053273499 267.402547447L173.174980939 269.655408418L178.397491135 271.48801942L183.71495626 272.878660193L189.12152849 273.805610473L194.61136 274.24715L204.78097 275.68966L214.99641 276.48499L227.05792 276.53499L232.07726 276.37365L237.1659 276.49951L242.24466 277.00345L247.23434 277.97636L252.05578 279.50912L256.6298 281.69263L260.87721 284.61776L264.71883 288.37541L267.27305 291.6276L269.55151 295.04487L271.5698 298.61225L273.34349 302.31478L276.21933 310.06549L278.30361 318.1773L279.72092 326.53054L280.59582 335.00554L281.0529 343.48262L281.21674 351.84209L280.74983 366.37748L279.66879 380.8776L285.91942 358.15467L292.4141 332.84954L295.42397 319.85284L298.10007 306.95965L300.31082 294.41963L301.9246 282.48246L304.56966 258.84389L307.1604 233.24484L308.23357 220.02353L309.05095 206.68819L309.53181 193.36418L309.59541 180.17686L309.16103 167.25159L308.14793 154.71374L306.47536 142.68867L304.06261 131.30173L300.82893 120.6783L298.87901 115.69207L296.69358 110.94373L294.26255 106.44895L291.57583 102.2234L288.62333 98.282738L285.39496 94.642648L285.39496 94.642648"
       style="color:#000000;fill:#e46600;fill-opacity:1;fill-rule:nonzero;stroke:#5d0000;stroke-width:1.25489175;stroke-linecap:butt;stroke-linejoin:miter;stroke-miterlimit:4;stroke-opacity:1;stroke-dasharray:none;stroke-dashoffset:0;marker:none;visibility:visible;display:inline;overflow:visible;enable-background:accumulate" />
  </g>
  <g
     style="display:inline"
     inkscape:label="turboBlades"
     id="layer5"
     inkscape:groupmode="layer">
    <path
       sodipodi:nodetypes="ccccccccccccccccccccccccc"
       inkscape:connector-curvature="0"
       id="path2987"
       d="m 0,126.84375 0,176.09375 192.59375,0 0,-24.34375 c -22.61035,-0.91857 -28.0711,-3.62363 -43.4375,-15.8125 L 143.46875,258 l -5.4375,-5.15625 -5.1875,-5.40625 -4.96875,-5.5625 -8.90625,-11.59375 -8.15625,-12.3125 -7.3125,-12.9375 -3.3125,-6.6875 -3.03125,-6.84375 -2.8125,-6.9375 -2.5,-7.09375 -2.21875,-7.15625 -1.9375,-7.28125 -1.59375,-7.375 -1.28125,-7.46875 -0.9375,-7.53125 -0.5625,-7.59375 -0.28125,-5.59375 0.0625,-0.625 z"
       style="color:#000000;fill:#e46600;fill-opacity:1;fill-rule:nonzero;stroke:#5d0000;stroke-width:1.31281173;stroke-linecap:butt;stroke-linejoin:miter;stroke-miterlimit:4;stroke-opacity:1;stroke-dasharray:none;stroke-dashoffset:0;marker:none;visibility:visible;display:inline;overflow:visible;enable-background:accumulate" />
  </g>
  <g
     style="display:inline"
     inkscape:label="turboCore"
     id="layer4"
     inkscape:groupmode="layer">
    <path
       style="color:#000000;fill:#e40000;fill-opacity:1;fill-rule:nonzero;stroke:#5d0000;stroke-width:1.37808549;stroke-linecap:butt;stroke-linejoin:miter;stroke-miterlimit:4;stroke-opacity:1;stroke-dasharray:none;stroke-dashoffset:0;marker:none;visibility:visible;display:inline;overflow:visible;enable-background:accumulate"
       d="M0.0510965 101.99457L3.66569574231 102.078492437L7.04844380566 102.464308711L10.1994009135 103.129357896L13.1186272891 104.050979062L18.2621287373 106.573293633L22.4794299375 109.849965L25.7710126768 113.699705742L28.1373587422 117.941228438L29.5789499209 122.393245664L30.096268 126.87447L30.369232 135.52813L31.173354 144.08573L32.486485 152.53556L34.286473 160.8659L36.55117 169.06503L39.258424 177.12124L42.386086 185.02281L45.912004 192.75802L49.814027 200.31516L54.070007 207.68251L58.657793 214.84835L63.555232 221.80097L68.740177 228.52865L74.190475 235.01967L79.883978 241.26233L85.798532 247.24489L91.91199 252.95564L98.202201 258.38288L104.64701 263.51487L111.22428 268.33991L117.91184 272.84627L124.68756 277.02226L131.52928 280.85612L138.41484 284.33617L145.3221 287.45069L152.22892 290.18795L159.11313 292.53623L165.9526 294.48384L172.72515 296.01903L179.40865 297.13011L185.98096 297.80534L192.41991 298.03302L192.41991 302.88991L0.68904274 302.88991L0.0510965 101.99457"
       id="path2999"
       inkscape:connector-curvature="0"
       sodipodi:nodetypes="ccccccccccccccccccccccccccccccccccccc" />
  </g>
  <g
     id="layer1"
     inkscape:groupmode="layer"
     inkscape:label="refAndJunk"
     style="display:none">
    <path
       transform="matrix(1.0582116,0,0,1.0582116,-2.2265625e-6,-3.7127362)"
       sodipodi:type="arc"
       style="fill:none;stroke:#000000;stroke-width:1;stroke-linejoin:round;stroke-miterlimit:4;stroke-opacity:1;stroke-dasharray:none;display:inline"
       id="path3006"
       sodipodi:cx="0"
       sodipodi:cy="63.779526"
       sodipodi:rx="239.17322"
       sodipodi:ry="239.17322"
       d="m 239.17322,63.779526 a 239.17322,239.17322 0 1 1 -478.34644,0 239.17322,239.17322 0 1 1 478.34644,0 z" />
    <path
       d="m 239.17322,63.779526 a 239.17322,239.17322 0 1 1 -478.34644,0 239.17322,239.17322 0 1 1 478.34644,0 z"
       sodipodi:ry="239.17322"
       sodipodi:rx="239.17322"
       sodipodi:cy="63.779526"
       sodipodi:cx="0"
       id="path3812"
       style="fill:none;stroke:#000000;stroke-width:1;stroke-linejoin:round;stroke-miterlimit:4;stroke-opacity:1;stroke-dasharray:none;display:inline"
       sodipodi:type="arc"
       transform="matrix(0.78794331,0,0,0.78794331,-2.2265625e-6,13.52485)" />
  </g>
  <g
     inkscape:groupmode="layer"
     id="layer6"
     inkscape:label="guideVane"
     style="display:none">
    <path
       style="color:#000000;fill:#e40000;fill-opacity:1;fill-rule:nonzero;stroke:#5d0000;stroke-width:1.28644252;stroke-linecap:butt;stroke-linejoin:miter;stroke-miterlimit:4;stroke-opacity:1;stroke-dasharray:none;stroke-dashoffset:0;marker:none;visibility:visible;display:inline;overflow:visible;enable-background:accumulate"
       d="m 200.36385,218.46282 1.64533,-13.8567 1.26576,-13.77242 0.88908,-13.67711 0.51527,-13.57074 0.14431,-13.45333 -0.22378,-13.32488 -0.58898,-13.18538 -0.95133,-13.03483 -1.31081,-12.873235 -1.66741,-12.700601 -2.02115,-12.516919 -2.37202,-12.322191 -2.72002,-12.116418 -3.06516,-11.8996 -3.40742,-11.671736 -3.74681,-11.432826 6.76178,5.095387 6.11527,5.364294 5.49335,5.614851 4.89601,5.847056 4.32324,6.060911 3.77504,6.256413 3.25144,6.433565 2.75239,6.592366 2.27793,6.732815 1.82805,6.854914 1.40275,6.958661 1.00201,7.044058 0.62587,7.111102 0.27428,7.159793 -0.0527,7.19014 -0.35513,7.20213 -1.51921,14.36684 -2.43398,14.19458 -3.15211,13.87553 -3.67365,13.40967 -3.99855,12.79699 -4.12684,12.03751 -7.85209,21.20934 0,0"
       id="path3814"
       inkscape:connector-curvature="0"
       sodipodi:nodetypes="ccc" />
  </g>
  <g
     inkscape:label="stand"
     id="layer7"
     inkscape:groupmode="layer"
     style="display:none">
    <path
       sodipodi:nodetypes="cccsscc"
       inkscape:connector-curvature="0"
       id="path3959"
       d="m 111.61417,119.58661 c 0.5199,-22.07898 4.64304,-44.157959 19.9311,-63.779525 l 187.35236,0 C 382.4351,117.64629 428.87098,332.75989 446.45668,418.55314 455.19283,461.17316 409.48326,470.869 391.11356,432.06534 326.50143,295.58038 283.53884,273.80504 225.61848,254.72107 z"
       style="color:#000000;fill:#e40000;fill-opacity:1;fill-rule:nonzero;stroke:#5d0000;stroke-width:1.31281173;stroke-linecap:butt;stroke-linejoin:miter;stroke-miterlimit:4;stroke-opacity:1;stroke-dasharray:none;stroke-dashoffset:0;marker:none;visibility:visible;display:inline;overflow:visible;enable-background:accumulate" />
  </g>
</svg>

<?xml version="1.0" encoding="UTF-8" standalone="no"?>
<!-- Created with Inkscape (http://www.inkscape.org/) -->

<svg
   xmlns:dc="http://purl.org/dc/elements/1.1/"
   xmlns:cc="http://creativecommons.org/ns#"
   xmlns:rdf="http://www.w3.org/1999/02/22-rdf-syntax-ns#"
   xmlns:svg="http://www.w3.org/2000/svg"
   xmlns="http://www.w3.org/2000/svg"
   xmlns:sodipodi="http://sodipodi.sourceforge.net/DTD/sodipodi-0.dtd"
   xmlns:inkscape="http://www.inkscape.org/namespaces/inkscape"
   width="744.09448819"
   height="1052.3622047"
   id="svg2"
   version="1.1"
   inkscape:version="0.48.4 r9939"
   sodipodi:docname="turboProfileConv.svg">
  <sodipodi:namedview
     id="base"
     pagecolor="#ffffff"
     bordercolor="#666666"
     borderopacity="1.0"
     inkscape:pageopacity="0.0"
     inkscape:pageshadow="2"
     inkscape:zoom="5.3397158"
     inkscape:cx="158.52964"
     inkscape:cy="779.25133"
     inkscape:document-units="px"
     inkscape:current-layer="layer4"
     showgrid="false"
     showguides="true"
     inkscape:guide-bbox="true"
     inkscape:window-width="1366"
     inkscape:window-height="715"
     inkscape:window-x="-8"
     inkscape:window-y="-8"
     inkscape:window-maximized="1"
     inkscape:snap-global="false">
    <sodipodi:guide
       id="guide3148"
       position="0,898.01498"
       orientation="1,0" />
    <sodipodi:guide
       id="guide3002"
       position="253.12499,1104.183"
       orientation="1,0" />
    <sodipodi:guide
       id="guide3004"
       position="188.1111,678.22368"
       orientation="1,0" />
  </sodipodi:namedview>
  <defs
     id="defs4" />
  <metadata
     id="metadata7">
    <rdf:RDF>
      <cc:Work
         rdf:about="">
        <dc:format>image/svg+xml</dc:format>
        <dc:type
           rdf:resource="http://purl.org/dc/dcmitype/StillImage" />
        <dc:title />
      </cc:Work>
    </rdf:RDF>
  </metadata>
  <g
     inkscape:groupmode="layer"
     id="layer2"
     inkscape:label="base"
     style="display:inline">
    <path
       style="color:#000000;fill:#e40000;fill-opacity:1;fill-rule:nonzero;stroke:#5d0000;stroke-width:1.31281173;stroke-linecap:butt;stroke-linejoin:miter;stroke-miterlimit:4;stroke-opacity:1;stroke-dasharray:none;stroke-dashoffset:0;marker:none;visibility:visible;display:inline;overflow:visible;enable-background:accumulate"
       d="m 0.65640587,306.027 175.92147413,0 72.23908,0 4.66477,0.53544 4.1219,1.56434 3.60491,2.53028 3.11381,3.43325 2.6486,4.27326 2.20928,5.0503 1.79585,5.76439 1.40832,6.4155 1.04667,7.00366 0.71091,7.52884 0.40104,7.99107 0.11706,8.39033 -0.51424,17.72659 -1.33947,18.56807 -1.95757,18.90583 -2.36856,18.73988 -5.14159,34.96708 -4.30006,28.25873 -1.31666,10.35446 -0.48491,7.16624 -4.9741,-4.27672 -4.93942,-3.65327 -4.90496,-3.04765 -4.87068,-2.45985 -4.8366,-1.88988 -4.80272,-1.33774 -4.76903,-0.80342 -4.73553,-0.28693 -4.70223,0.21173 -4.66913,0.69257 -4.63622,1.15558 -4.6035,1.60077 -4.57098,2.02812 -4.53866,2.43766 -4.50653,2.82935 -4.47459,3.20324 -8.85416,7.4568 -8.72875,8.73839 -8.60492,9.87737 -8.48263,10.87373 -8.36191,11.72749 -8.24275,12.43863 -8.12514,13.00716 -8.0091,13.43307 -15.676309,27.57344 -15.23085,27.56574 -14.79787,26.41715 -7.240466,12.42132 -7.1369,11.70634 -7.034894,10.84873 -6.934446,9.84852 -6.83556,8.7057 -6.738232,7.42025 -6.642464,5.99221 -3.285807,2.41602 -3.26245,2.00552 -3.239287,1.57721 -3.2163202,1.13106 -3.1935481,0.66709 -3.17097083,0.18529 0,-455.60533"
       id="path3793"
       inkscape:connector-curvature="0"
       sodipodi:nodetypes="cccccc" />
  </g>
  <g
     inkscape:groupmode="layer"
     id="layer3"
     inkscape:label="shroud"
     style="display:inline">
    <path
       style="color:#000000;fill:#e46600;fill-opacity:1;fill-rule:nonzero;stroke:#5d0000;stroke-width:1.25489175;stroke-linecap:butt;stroke-linejoin:miter;stroke-miterlimit:4;stroke-opacity:1;stroke-dasharray:none;stroke-dashoffset:0;marker:none;visibility:visible;display:inline;overflow:visible;enable-background:accumulate"
       d="M285.39497 94.642738L103.74012 94.642738L100.275054326 97.9825240312L97.2868428594 101.52694025L94.7731115566 105.275914844L92.731486375 109.229376L91.1595932715 113.387251906L90.0550582031 117.74947075L89.415507127 122.315960719L89.238566 127.08665L89.8763705408 138.031549377L91.5255598887 149.554356113L94.1393514446 161.481308113L97.6709626094 173.638643281L102.073610784 185.852599524L107.300513369 197.949414746L113.304887766 209.755326853L120.039951375 221.09657375L127.458921597 231.799393342L135.515015834 241.690023535L144.161451486 250.594702234L148.69142778 254.623009118L153.351445953 258.339667344L158.135658181 261.722956648L163.038216637 264.75115677L168.053273499 267.402547447L173.174980939 269.655408418L178.397491135 271.48801942L183.71495626 272.878660193L189.12152849 273.805610473L194.61136 274.24715L204.78097 275.68966L214.99641 276.48499L227.05792 276.53499L232.07726 276.37365L237.1659 276.49951L242.24466 277.00345L247.23434 277.97636L252.05578 279.50912L256.6298 281.69263L260.87721 284.61776L264.71883 288.37541L267.27305 291.6276L269.55151 295.04487L271.5698 298.61225L273.34349 302.31478L276.21933 310.06549L278.30361 318.1773L279.72092 326.53054L280.59582 335.00554L281.0529 343.48262L281.21674 351.84209L280.74983 366.37748L279.66879 380.8776L285.91942 358.15467L292.4141 332.84954L295.42397 319.85284L298.10007 306.95965L300.31082 294.41963L301.9246 282.48246L304.56966 258.84389L307.1604 233.24484L308.23357 220.02353L309.05095 206.68819L309.53181 193.36418L309.59541 180.17686L309.16103 167.25159L308.14793 154.71374L306.47536 142.68867L304.06261 131.30173L300.82893 120.6783L298.87901 115.69207L296.69358 110.94373L294.26255 106.44895L291.57583 102.2234L288.62333 98.282738L285.39496 94.642648L285.39496 94.642648"
       id="path3775"
       inkscape:connector-curvature="0"
       sodipodi:nodetypes="ccscccccccccccccccccccccccccccccccccccccccccccccccc" />
  </g>
  <g
     inkscape:groupmode="layer"
     id="layer5"
     inkscape:label="turboBlades"
     style="display:inline">
    <path
       style="color:#000000;fill:#e46600;fill-opacity:1;fill-rule:nonzero;stroke:#5d0000;stroke-width:1.31281173;stroke-linecap:butt;stroke-linejoin:miter;stroke-miterlimit:4;stroke-opacity:1;stroke-dasharray:none;stroke-dashoffset:0;marker:none;visibility:visible;display:inline;overflow:visible;enable-background:accumulate"
       d="M0.0 126.84375L0.0 302.9375L181.74866 302.9375L181.74866 278.59375L173.860663594 276.369822656L166.94968375 273.71997875L159.290089531 269.553895469L149.15625 262.78125L143.46875 258.0L138.03125 252.84375L132.84375 247.4375L127.875 241.875L118.96875 230.28125L110.8125 217.96875L103.5 205.03125L100.1875 198.34375L97.15625 191.5L94.34375 184.5625L91.84375 177.46875L89.625 170.3125L87.6875 163.03125L86.09375 155.65625L84.8125 148.1875L83.875 140.65625L83.3125 133.0625L83.03125 127.46875L83.09375 126.84375L0.0 126.84375"
       id="path2987"
       inkscape:connector-curvature="0"
       sodipodi:nodetypes="ccccccccccccccccccccccccc" />
  </g>
  <g
     inkscape:groupmode="layer"
     id="layer4"
     inkscape:label="turboCore"
     style="display:inline">
    <path
       sodipodi:nodetypes="cccccccccccccccccccccccccccccccccccccccccccc"
       inkscape:connector-curvature="0"
       id="path2999"
       d="M0.0510965 101.99457L3.6656957 102.07847L7.0484438 102.46429L10.199401 103.12934L13.118627 104.05096L18.262129 106.57327L22.47943 109.84994L25.771013 113.69969L28.137359 117.94121L29.57895 122.39323L30.096268 126.87445L30.369232 135.52811L31.173354 144.08571L32.486485 152.53554L34.286473 160.86588L36.55117 169.06501L39.258424 177.12122L42.386086 185.02279L45.912004 192.758L49.814027 200.31514L54.070007 207.68249L58.657793 214.84833L63.555232 221.80095L68.740177 228.52863L74.190475 235.01965L79.883978 241.26231L85.798532 247.24487L91.91199 252.95562L98.202201 258.38286L104.64701 263.51485L111.22428 268.33989L117.91184 272.84625L124.68756 277.02224L131.52928 280.8561L138.41484 284.33615L145.3221 287.45067L152.22892 290.18793L159.11313 292.53621L165.9526 294.48382L172.72515 296.01901L181.74518 298.033L181.74518 302.88989L0.68904274 302.88989L0.0510965 101.99457"
       style="color:#000000;fill:#e40000;fill-opacity:1;fill-rule:nonzero;stroke:#5d0000;stroke-width:1.37808549;stroke-linecap:butt;stroke-linejoin:miter;stroke-miterlimit:4;stroke-opacity:1;stroke-dasharray:none;stroke-dashoffset:0;marker:none;visibility:visible;display:inline;overflow:visible;enable-background:accumulate" />
  </g>
  <g
     style="display:none"
     inkscape:label="refAndJunk"
     inkscape:groupmode="layer"
     id="layer1">
    <path
       d="m 239.17322,63.779526 a 239.17322,239.17322 0 1 1 -478.34644,0 239.17322,239.17322 0 1 1 478.34644,0 z"
       sodipodi:ry="239.17322"
       sodipodi:rx="239.17322"
       sodipodi:cy="63.779526"
       sodipodi:cx="0"
       id="path3006"
       style="fill:none;stroke:#000000;stroke-width:1;stroke-linejoin:round;stroke-miterlimit:4;stroke-opacity:1;stroke-dasharray:none;display:inline"
       sodipodi:type="arc"
       transform="matrix(1.0582116,0,0,1.0582116,-2.2265625e-6,-3.7127362)" />
    <path
       transform="matrix(0.78794331,0,0,0.78794331,-2.2265625e-6,13.52485)"
       sodipodi:type="arc"
       style="fill:none;stroke:#000000;stroke-width:1;stroke-linejoin:round;stroke-miterlimit:4;stroke-opacity:1;stroke-dasharray:none;display:inline"
       id="path3812"
       sodipodi:cx="0"
       sodipodi:cy="63.779526"
       sodipodi:rx="239.17322"
       sodipodi:ry="239.17322"
       d="m 239.17322,63.779526 a 239.17322,239.17322 0 1 1 -478.34644,0 239.17322,239.17322 0 1 1 478.34644,0 z" />
  </g>
  <g
     style="display:none"
     inkscape:label="guideVane"
     id="layer6"
     inkscape:groupmode="layer">
    <path
       sodipodi:nodetypes="ccc"
       inkscape:connector-curvature="0"
       id="path3814"
       d="m 200.36385,218.46282 1.64533,-13.8567 1.26576,-13.77242 0.88908,-13.67711 0.51527,-13.57074 0.14431,-13.45333 -0.22378,-13.32488 -0.58898,-13.18538 -0.95133,-13.03483 -1.31081,-12.873235 -1.66741,-12.700601 -2.02115,-12.516919 -2.37202,-12.322191 -2.72002,-12.116418 -3.06516,-11.8996 -3.40742,-11.671736 -3.74681,-11.432826 6.76178,5.095387 6.11527,5.364294 5.49335,5.614851 4.89601,5.847056 4.32324,6.060911 3.77504,6.256413 3.25144,6.433565 2.75239,6.592366 2.27793,6.732815 1.82805,6.854914 1.40275,6.958661 1.00201,7.044058 0.62587,7.111102 0.27428,7.159793 -0.0527,7.19014 -0.35513,7.20213 -1.51921,14.36684 -2.43398,14.19458 -3.15211,13.87553 -3.67365,13.40967 -3.99855,12.79699 -4.12684,12.03751 -7.85209,21.20934 0,0"
       style="color:#000000;fill:#e40000;fill-opacity:1;fill-rule:nonzero;stroke:#5d0000;stroke-width:1.28644252;stroke-linecap:butt;stroke-linejoin:miter;stroke-miterlimit:4;stroke-opacity:1;stroke-dasharray:none;stroke-dashoffset:0;marker:none;visibility:visible;display:inline;overflow:visible;enable-background:accumulate" />
  </g>
  <g
     style="display:none"
     inkscape:groupmode="layer"
     id="layer7"
     inkscape:label="stand">
    <path
       style="color:#000000;fill:#e40000;fill-opacity:1;fill-rule:nonzero;stroke:#5d0000;stroke-width:1.31281173;stroke-linecap:butt;stroke-linejoin:miter;stroke-miterlimit:4;stroke-opacity:1;stroke-dasharray:none;stroke-dashoffset:0;marker:none;visibility:visible;display:inline;overflow:visible;enable-background:accumulate"
       d="m 111.61417,119.58661 c 0.5199,-22.07898 4.64304,-44.157959 19.9311,-63.779525 l 187.35236,0 C 382.4351,117.64629 428.87098,332.75989 446.45668,418.55314 455.19283,461.17316 409.48326,470.869 391.11356,432.06534 326.50143,295.58038 283.53884,273.80504 225.61848,254.72107 z"
       id="path3959"
       inkscape:connector-curvature="0"
       sodipodi:nodetypes="cccsscc" />
  </g>
</svg>
